symbols/web/add_to_home_screen/materialsymbolsoutlined/add_to_home_screen_gradN25_40px.svg

<svg xmlns="http://www.w3.org/2000/svg" height="40" width="40"><path d="m7.042 27.792-1.834-1.834 9.917-9.875H8.458v-2.625h11.167v11.125h-2.667v-6.708Zm5.833 10.25q-1.083 0-1.875-.771t-.792-1.854v-6.125h2.667v2.041h17.583V8.667H12.875v2.041h-2.667V4.583q0-1.083.792-1.854.792-.771 1.875-.771h17.583q1.084 0 1.875.771.792.771.792 1.854v30.834q0 1.083-.792 1.854-.791.771-1.875.771Zm0-32h17.583V4.583H12.875Zm0-1.459v1.459-1.459Zm0 29.375v1.459h17.583v-1.459Zm0 1.459v-1.459 1.459Z"/></svg>

<svg xmlns="http://www.w3.org/2000/svg" height="40" width="40"><path d="M7.042 27.792 5.208 25.958 15.125 16.083H8.458V13.458H19.625V24.583H16.958V17.875ZM12.875 38.042Q11.792 38.042 11 37.271Q10.208 36.5 10.208 35.417V29.292H12.875V31.333H30.458V8.667H12.875V10.708H10.208V4.583Q10.208 3.5 11 2.729Q11.792 1.958 12.875 1.958H30.458Q31.542 1.958 32.333 2.729Q33.125 3.5 33.125 4.583V35.417Q33.125 36.5 32.333 37.271Q31.542 38.042 30.458 38.042ZM12.875 6.042H30.458V4.583Q30.458 4.583 30.458 4.583Q30.458 4.583 30.458 4.583H12.875Q12.875 4.583 12.875 4.583Q12.875 4.583 12.875 4.583ZM12.875 4.583Q12.875 4.583 12.875 4.583Q12.875 4.583 12.875 4.583V6.042V4.583Q12.875 4.583 12.875 4.583Q12.875 4.583 12.875 4.583ZM12.875 33.958V35.417Q12.875 35.417 12.875 35.417Q12.875 35.417 12.875 35.417H30.458Q30.458 35.417 30.458 35.417Q30.458 35.417 30.458 35.417V33.958ZM12.875 35.417Q12.875 35.417 12.875 35.417Q12.875 35.417 12.875 35.417V33.958V35.417Q12.875 35.417 12.875 35.417Q12.875 35.417 12.875 35.417Z"/></svg>
